packages/icon/src/images/social/social-tiktok-circle.svg

<svg width="24" height="24" viewBox="0 0 24 24" fill="none" xmlns="http://www.w3.org/2000/svg">
<g clip-path="url(#clip0_10834_1827)">
<path d="M12 0C9.62663 0 7.30655 0.703788 5.33316 2.02236C3.35977 3.34094 1.8217 5.21509 0.913451 7.4078C0.00519943 9.60051 -0.232441 12.0133 0.230582 14.3411C0.693605 16.6689 1.83649 18.8071 3.51472 20.4853C5.19295 22.1635 7.33115 23.3064 9.65892 23.7694C11.9867 24.2324 14.3995 23.9948 16.5922 23.0866C18.7849 22.1783 20.6591 20.6402 21.9776 18.6668C23.2962 16.6935 24 14.3734 24 12C24 8.8174 22.7357 5.76516 20.4853 3.51472C18.2349 1.26428 15.1826 0 12 0ZM19.06 10.35C18.1715 10.3445 17.2938 10.1541 16.4829 9.79082C15.672 9.42755 14.9456 8.8994 14.35 8.24V15.24C14.352 16.1724 14.0772 17.0844 13.5604 17.8605C13.0436 18.6366 12.3081 19.2418 11.4471 19.5995C10.586 19.9573 9.63817 20.0514 8.72359 19.87C7.80901 19.6886 6.96885 19.2398 6.30954 18.5805C5.65024 17.9212 5.20145 17.081 5.02003 16.1664C4.83861 15.2518 4.93273 14.304 5.29046 13.4429C5.64818 12.5819 6.25343 11.8464 7.02951 11.3296C7.8056 10.8128 8.71761 10.538 9.65001 10.54C9.80757 10.5468 9.96455 10.5635 10.12 10.59V13C9.96535 12.968 9.80793 12.9513 9.65001 12.95C9.18197 12.948 8.72392 13.0853 8.33409 13.3443C7.94425 13.6033 7.64023 13.9724 7.46067 14.4046C7.28111 14.8368 7.23413 15.3127 7.32569 15.7717C7.41725 16.2307 7.64322 16.6521 7.97488 16.9823C8.30654 17.3126 8.7289 17.5367 9.18828 17.6263C9.64766 17.7159 10.1233 17.6669 10.5548 17.4855C10.9862 17.3041 11.354 16.9985 11.6113 16.6076C11.8687 16.2167 12.004 15.758 12 15.29V4H14.82L14.97 4.57C15.1978 5.48201 15.7242 6.29156 16.4654 6.86968C17.2066 7.44779 18.12 7.76121 19.06 7.76V10.35Z" fill="black"/>
</g>
<defs>
<clipPath id="clip0_10834_1827">
<rect width="24" height="24" fill="white"/>
</clipPath>
</defs>
</svg>

<?xml version="1.0" encoding="UTF-8"?><svg id="Layer_1" xmlns="http://www.w3.org/2000/svg" viewBox="0 0 24 24"><path d="M20.49,3.51C18.23,1.26,15.18,0,12,0c-2.37,0-4.69.7-6.67,2.02C3.36,3.34,1.82,5.22.91,7.41,0,9.6-.23,12.01.23,14.34c.46,2.33,1.61,4.47,3.28,6.14,1.68,1.68,3.82,2.82,6.14,3.28,2.33.46,4.74.23,6.93-.68,2.19-.91,4.07-2.45,5.39-4.42,1.32-1.97,2.02-4.29,2.02-6.67,0-3.18-1.26-6.23-3.51-8.49ZM19.06,10.35c-.89,0-1.77-.2-2.58-.56s-1.54-.89-2.13-1.55v7c0,.93-.27,1.84-.79,2.62-.52.78-1.25,1.38-2.11,1.74-.86.36-1.81.45-2.72.27-.91-.18-1.75-.63-2.41-1.29s-1.11-1.5-1.29-2.41c-.18-.91-.09-1.86.27-2.72.36-.86.96-1.6,1.74-2.11.78-.52,1.69-.79,2.62-.79.16,0,.31.02.47.05v2.41c-.15-.03-.31-.05-.47-.05-.47,0-.93.14-1.32.39s-.69.63-.87,1.06-.23.91-.14,1.37c.09.46.32.88.65,1.21.33.33.75.55,1.21.64.46.09.93.04,1.37-.14.43-.18.8-.49,1.06-.88.26-.39.39-.85.39-1.32V4h2.82l.15.57c.23.91.75,1.72,1.5,2.3s1.65.89,2.59.89v2.59Z"/></svg>
